src/Widgets/YoutubeVideoWidget/thumbnail.svg

<svg xmlns="http://www.w3.org/2000/svg" fill="none" viewBox="0 0 150 100"><g clip-path="url(#a)"><path fill="#AAA" d="M75.04 83.06c18.247 0 33.04-15.012 33.04-33.53S93.287 16 75.04 16C56.792 16 42 31.012 42 49.53s14.792 33.53 33.04 33.53" opacity=".55"/><path fill="#fff" d="M95.88 39c-.25-.95-.74-1.79-1.41-2.46a5.3 5.3 0 0 0-2.43-1.41c-3.4-.92-17-.92-17-.92s-13.6 0-16.99.92c-1.87.5-3.34 1.98-3.84 3.87-.91 3.41-.91 10.53-.91 10.53s0 7.12.91 10.54c.5 1.88 1.97 3.36 3.84 3.87 3.39.91 16.99.91 16.99.91s13.6 0 17-.91a5.48 5.48 0 0 0 3.84-3.87c.91-3.42.91-10.54.91-10.54s0-7.12-.91-10.53M70.36 56V43.07l11.37 6.46z" opacity=".75"/></g><defs><clipPath id="a"><path fill="#fff" d="M42 16h66.09v67.06H42z"/></clipPath></defs></svg>

<svg viewBox="0 0 150 100" fill="none" xmlns="http://www.w3.org/2000/svg">
<g id="youtube">
<g id="Ebene_1" clip-path="url(#clip0_6_648)">
<path id="Vector" opacity="0.55" d="M75.04 83.06C93.2875 83.06 108.08 68.0481 108.08 49.53C108.08 31.0119 93.2875 16 75.04 16C56.7925 16 42 31.0119 42 49.53C42 68.0481 56.7925 83.06 75.04 83.06Z" fill="#AAAAAA"/>
<path id="Vector_2" opacity="0.75" d="M95.88 39C95.63 38.05 95.14 37.21 94.47 36.54C93.81 35.87 92.98 35.38 92.04 35.13C88.64 34.21 75.04 34.21 75.04 34.21C75.04 34.21 61.44 34.21 58.05 35.13C56.18 35.63 54.71 37.11 54.21 39C53.3 42.41 53.3 49.53 53.3 49.53C53.3 49.53 53.3 56.65 54.21 60.07C54.71 61.95 56.18 63.43 58.05 63.94C61.44 64.85 75.04 64.85 75.04 64.85C75.04 64.85 88.64 64.85 92.04 63.94C93.91 63.43 95.38 61.95 95.88 60.07C96.79 56.65 96.79 49.53 96.79 49.53C96.79 49.53 96.79 42.41 95.88 39ZM70.36 56V43.07L81.73 49.53L70.36 56Z" fill="white"/>
</g>
</g>
<defs>
<clipPath id="clip0_6_648">
<rect width="66.09" height="67.06" fill="white" transform="translate(42 16)"/>
</clipPath>
</defs>
</svg>
